packages/icons/src/assets/letter-spacing.svg

<svg width="16" height="16" viewBox="0 0 16 16" fill="currentColor" xmlns="http://www.w3.org/2000/svg">
<path d="M1.75 14.2002H0.5V2H1.75V14.2002Z" fill="currentColor"/>
<path d="M15.4502 14.2002H14.2002V2H15.4502V14.2002Z" fill="currentColor"/>
<path fill-rule="evenodd" clip-rule="evenodd" d="M8.03711 2.40039C8.16537 2.40039 8.29124 2.43782 8.39746 2.50879C8.50373 2.57985 8.58615 2.68115 8.63379 2.79883L12.9756 13.9385H11.6094L10.0605 10.0537H5.98438L4.46582 13.9385H3.09961L7.44141 2.79883C7.48904 2.68115 7.57147 2.57985 7.67773 2.50879C7.78382 2.43791 7.90902 2.40048 8.03711 2.40039ZM6.47363 8.83594H9.60156L8.04297 4.81152L6.47363 8.83594Z" fill="currentColor"/>
</svg>

<svg xmlns="http://www.w3.org/2000/svg" width="16" height="16" viewBox="0 0 16 16"><path d="M1.75 14.2H.5V2h1.25zm13.7 0H14.2V2h1.25z"/><path fill-rule="evenodd" d="M8.037 2.4a.64.64 0 0 1 .597.398l4.342 11.14h-1.367l-1.549-3.884H5.985l-1.518 3.884H3.1l4.34-11.14a.64.64 0 0 1 .596-.398M6.474 8.836h3.128L8.043 4.812z"/></svg>
